X:134
T: Der Spielmannssohn
N: Q0062H
O: Mitteleuropa, Deutschland / Frankreich, Lothringen
N: Kleine Melodievarianten aus anderer Quelle im gleichen System
N: abgedruckt.
R: Ballade, Verfuehrung, Standesunterschied, Strafe, Gnade
M: 6/8
L: 1/16
K: Bb
F2 | B3BF2B4F2 | B3BB2B4
F2 | c3cc2c2d2c2 | B6A4
G2 | G4G2B2A2G2 | F4F2D4
G2 | GGG2G2B2A2G2 | G6F4

